1.Normal/chrome/Icons/globe.svg

<svg xmlns="http://www.w3.org/2000/svg" width="16" height="16" viewBox="0 0 16 16">
   <path
   style="fill:context-fill;fill-opacity:context-fill-opacity"
   d="M 8 0 C 3.58172 0 0 3.58172 0 8 C 0 12.4183 3.58172 16 8 16 C 12.4183 16 16 12.4183 16 8 C 16 3.58172 12.4183 0 8 0 z M 8 1 C 8.6568 1 9.4064844 1.5903131 10.021484 2.9082031 C 10.238984 3.3742531 10.427778 3.90978 10.580078 4.5 L 5.4199219 4.5 C 5.5722819 3.90978 5.7610256 3.3742531 5.9785156 2.9082031 C 6.5935256 1.5903131 7.34315 1 8 1 z M 5.7148438 1.3808594 C 5.4733938 1.7114494 5.2585156 2.085285 5.0722656 2.484375 C 4.7958756 3.076645 4.5643419 3.75696 4.3886719 4.5 L 1.9355469 4.5 C 2.7720169 3.05399 4.1122438 1.9341994 5.7148438 1.3808594 z M 10.285156 1.3808594 C 11.887756 1.9341994 13.228053 3.05399 14.064453 4.5 L 11.611328 4.5 C 11.435628 3.75696 11.204134 3.076645 10.927734 2.484375 C 10.741434 2.085285 10.526556 1.7114494 10.285156 1.3808594 z M 1.4589844 5.5 L 4.1933594 5.5 C 4.0679394 6.28832 4 7.12934 4 8 C 4 8.8707 4.0679394 9.7117 4.1933594 10.5 L 1.4589844 10.5 C 1.1620344 9.7236 1 8.8808 1 8 C 1 7.1192 1.1620344 6.2764 1.4589844 5.5 z M 5.2070312 5.5 L 10.792969 5.5 C 10.925769 6.27472 11 7.11669 11 8 C 11 8.8833 10.925769 9.7253 10.792969 10.5 L 5.2070312 10.5 C 5.0743113 9.7253 5 8.8833 5 8 C 5 7.11669 5.0743113 6.27472 5.2070312 5.5 z M 11.806641 5.5 L 14.541016 5.5 C 14.837916 6.2764 15 7.1192 15 8 C 15 8.8808 14.837916 9.7236 14.541016 10.5 L 11.806641 10.5 C 11.932041 9.7117 12 8.8707 12 8 C 12 7.12934 11.932041 6.28832 11.806641 5.5 z M 1.9355469 11.5 L 4.3886719 11.5 C 4.5643419 12.243 4.7958756 12.923425 5.0722656 13.515625 C 5.2585156 13.914725 5.4733937 14.288541 5.7148438 14.619141 C 4.1122438 14.065741 2.7720169 12.946 1.9355469 11.5 z M 5.4199219 11.5 L 10.580078 11.5 C 10.427778 12.0902 10.238984 12.625697 10.021484 13.091797 C 9.4064844 14.409597 8.6568 15 8 15 C 7.34315 15 6.5935256 14.409597 5.9785156 13.091797 C 5.7610256 12.625697 5.5722819 12.0902 5.4199219 11.5 z M 11.611328 11.5 L 14.064453 11.5 C 13.228053 12.946 11.887756 14.065741 10.285156 14.619141 C 10.526556 14.288541 10.741434 13.914725 10.927734 13.515625 C 11.204134 12.923425 11.435628 12.243 11.611328 11.5 z " />
</svg>

<svg xmlns="http://www.w3.org/2000/svg" width="16" height="16">
  <path style="fill:context-fill;fill-opacity:context-fill-opacity" d="M8 0a8 8 0 1 0 0 16A8 8 0 0 0 8 0zm0 1c.657 0 1.406.59 2.021 1.908.218.466.407 1.002.56 1.592H5.42a9.25 9.25 0 0 1 .559-1.592C6.594 1.59 7.343 1 8 1zm-2.285.38c-.242.331-.456.705-.643 1.104A10.511 10.511 0 0 0 4.39 4.5H1.936a7.026 7.026 0 0 1 3.779-3.12zm4.57 0a7.026 7.026 0 0 1 3.78 3.12H11.61a10.513 10.513 0 0 0-.683-2.016 6.635 6.635 0 0 0-.643-1.103zM1.46 5.5h2.734C4.068 6.288 4 7.13 4 8c0 .87.068 1.712.193 2.5H1.46A6.983 6.983 0 0 1 1 8c0-.88.162-1.724.459-2.5zm3.748 0h5.586c.133.775.207 1.617.207 2.5s-.074 1.725-.207 2.5H5.207A14.866 14.866 0 0 1 5 8c0-.883.074-1.725.207-2.5zm6.6 0h2.734c.297.776.459 1.62.459 2.5 0 .88-.162 1.724-.459 2.5h-2.734C11.932 9.712 12 8.87 12 8c0-.87-.068-1.712-.193-2.5zm-9.871 6h2.453c.175.743.407 1.423.683 2.016.187.399.401.773.643 1.103a7.026 7.026 0 0 1-3.78-3.119zm3.484 0h5.16a9.247 9.247 0 0 1-.559 1.592C9.406 14.41 8.657 15 8 15c-.657 0-1.406-.59-2.021-1.908a9.253 9.253 0 0 1-.56-1.592zm6.191 0h2.453a7.026 7.026 0 0 1-3.779 3.12c.242-.331.456-.705.643-1.104.276-.593.508-1.273.683-2.016z"/>
</svg>
